X: 39431
T: Tarantella
R: slide
M: 12/8
K: Aminor
|:z2e|cdc BcB A^GA BAB|cBc dcd e2ee2e|
cdc BcB A^GA BAB|cBA E2^G A3:|
|:GAB|cBc GAB cBc fed|cBA ^GAB A3 GAB|
cBc GAB cBc fed|1 cBA ^GAB A3:|2 cBA ^GAB A2aa2a||
|:g2g f2f e2e fed|cBA ^GAB A2aa2a|
g2g f2f e2e fed|1 cBA ^GAB A2aa2a:|2 cBA ^GAB A3 GAB||
|:cBc GAB cBc fed|cBA ^GAB A3 GAB|
cBc GAB cBc fed|1 cBA ^GAB A3 GAB:|2 cBA ^GAB A3 zee||
|:cee cee cee cee|fed c2B c3 zee|
cee cee cee cee|1 fed c2B A3 zee:|2 fed c2B A3 GAB||
|:cBc GAB cBc fed|cBA ^GAB A3 GAB|
cBc GAB cBc fed|1 cBA ^GAB A3 GAB:|2 cBA ^GAB A3||

